X: 15
T: No_111_Song_After_Drinking_the_Wine.krn
N: Derived from No_111_Song_After_Drinking_the_Wine.krn
%%abc-version 2.0
%%abcx-abcm2ps-target-version 5.9.1 (29 Sep 2008)
%%abc-creator hum2abc beta
%%abcx-conversion-date 2019/03/15 08:37:56
%%humdrum-veritas 2928961530
%%humdrum-veritas-data 2173529647
%%linebreak <none>
%%barnumbers 0
L: 1/4
M: 2/4
K: Ab clef=bass
[K:clef=bass][M:2/4]E,E, ||  
[M:3/4]C3/A,/A, ||  
[M:2/4]B,A, | 
A,3/E,/ ||  
[M:3/4]E,E,E, ||  
[M:2/4]E,2 ||  
[M:3/4]D,E,/E,/E, ||  
[M:2/4]D,2 ||  
[M:3/4]B,,D,/D,/D, | 
D,3 ||  
[M:2/4]A,A, ||  
[M:3/4]B,3/A,/A, ||  
[M:2/4]A,E, | 
A,A, ||  
[M:3/4]B,3/A,/A, ||  
[M:2/4]B,B, ||  
[M:3/4]A,(A,G,) ||  
[M:2/4](A,3//E,//)E, | 
E,(E,3//D,//) ||  
[M:3/4]D,2B,,/ z/ ||  
[M:2/4]E,E, | 
E,2 | 
A,A, | 
E,3/D,/ ||  
[M:3/4]E,E,/D,/B,, ||  
[M:2/4]E,2- | 
E,2 | 
D,/B,,/B,, | 
E,2- | 
E,2 | 
E,2 | 
E,2 |]  



